svg/u1f963.svg

<svg viewBox="0 0 128 128" xmlns="http://www.w3.org/2000/svg">
  <path d="M5.01,52.21c-1.14,2.55-2.24,27.27,12.35,44.04c10.89,12.51,25.62,17.63,45.02,18.36 s38.13-5.78,47.13-16.09c16.25-18.63,14.55-41.06,13.7-44.4c-2.15-8.46-19.07-14.44-58.56-14.44C27.93,39.7,7.93,45.68,5.01,52.21z" fill="#6BB8FE"/>
  <path d="M93.71,49.99c0.41-0.1,8.04,0.74,8.19,0.64s3.37-7.58,3.37-7.58s-2.87-0.6-4.25-0.86 C99.64,41.95,93.71,49.99,93.71,49.99z" fill="#1D89FE"/>
  <path d="M33.39,100.91c-1.57,1.89-10.9-3.51-17.11-16.13c-5.44-11.05-5.3-17.05-4.28-18 c1.34-1.25,5.26-0.09,6.15,2.76c1.2,3.84,1.16,8.29,5.35,16.49C29.87,98.5,34.73,99.3,33.39,100.91z" fill="#E0EBF6"/>
  <path d="M12.27,54.07c0.56,6.06,20.79,9.72,52.79,10.26c32,0.54,52.25-3.92,52.25-9.59s-21.2-9.72-50.9-9.99 S11.73,48.27,12.27,54.07z" fill="#1D89FE"/>
  <path d="M96.29,62.95l6.93-15.18l-8.85-1.32l-11.22,1.73l-7.41,16.08c0,0,7.41-0.11,11.82-0.44 C91.97,63.48,96.29,62.95,96.29,62.95z" fill="#025ABC"/>
  <path d="M82.64,64.11c0,0,15.36-16.48,24.07-25.5s16.4-15.86,16.55-18.52c0.19-3.42-6.34-4.91-6.34-4.91 L75.74,60.97l-1.09,3.27c0,0,2.96,0.08,4.43,0C80.57,64.16,82.64,64.11,82.64,64.11z" fill="#9D9C9C"/>
  <path d="M116.78,15.12c0,0,4.79,1.05,4.58,2.87c-0.27,2.36-2.18,4.35-4.52,6.76S79.08,64.23,79.08,64.23 l-3.37,0.1l-0.4-1.72L116.78,15.12z" fill="#E0E0E0"/>
  <path d="M68.18,64.36c0,0,12.73-15.86,23.86-29.09s16.53-20.44,18.09-20.91s9.33,0.99,9.61,1.98 c0.4,1.38-0.12,2.77-4.17,6.97c-4.05,4.2-39.07,41-39.07,41s-1.81,0.06-3.58,0.07S68.18,64.36,68.18,64.36z" fill="#C8C8C8"/>
  <path d="M110.57,16.88c-2.3,0.83-9.94,9.08-7.93,9.94c1.62,0.7,6.58-4.72,9.22-6.22c2.64-1.5,4.22-0.79,4.5-2 C116.65,17.38,112.93,16.02,110.57,16.88z" fill="#FFFFFF"/>
</svg>

<svg viewBox="0 0 128 128" xmlns="http://www.w3.org/2000/svg">
  <defs/>
  <path d="M5.01,52.21 C3.87,54.76 2.77,79.48 17.36,96.25 C28.25,108.76 42.98,113.88 62.38,114.61 C81.78,115.34 100.51,108.83 109.51,98.52 C125.76,79.89 124.06,57.46 123.21,54.12 C121.06,45.66 104.14,39.68 64.65,39.68 C27.93,39.7 7.93,45.68 5.01,52.21 Z" fill="#6BB8FE"/>
  <path d="M93.71,49.99 C94.12,49.89 101.75,50.73 101.9,50.63 C102.05,50.53 105.27,43.05 105.27,43.05 C105.27,43.05 102.4,42.45 101.02,42.19 C99.64,41.95 93.71,49.99 93.71,49.99 Z" fill="#1D89FE"/>
  <path d="M33.39,100.91 C31.82,102.8 22.49,97.4 16.28,84.78 C10.84,73.73 10.98,67.73 12,66.78 C13.34,65.53 17.26,66.69 18.15,69.54 C19.35,73.38 19.31,77.83 23.5,86.03 C29.87,98.5 34.73,99.3 33.39,100.91 Z" fill="#E0EBF6"/>
  <path d="M12.27,54.07 C12.83,60.13 33.06,63.79 65.06,64.33 C97.06,64.87 117.31,60.41 117.31,54.74 C117.31,49.07 96.11,45.02 66.41,44.75 C36.71,44.48 11.73,48.27 12.27,54.07 Z" fill="#1D89FE"/>
  <path d="M96.29,62.95 L103.22,47.77 L94.37,46.45 L83.15,48.18 L75.74,64.26 C75.74,64.26 83.15,64.15 87.56,63.82 C91.97,63.48 96.29,62.95 96.29,62.95 Z" fill="#025ABC"/>
  <path d="M82.64,64.11 C82.64,64.11 98,47.63 106.71,38.61 C115.42,29.59 123.11,22.75 123.26,20.09 C123.45,16.67 116.92,15.18 116.92,15.18 L75.74,60.97 L74.65,64.24 C74.65,64.24 77.61,64.32 79.08,64.24 C80.57,64.16 82.64,64.11 82.64,64.11 Z" fill="#9D9C9C"/>
  <path d="M116.78,15.12 C116.78,15.12 121.57,16.17 121.36,17.99 C121.09,20.35 119.18,22.34 116.84,24.75 C114.5,27.16 79.08,64.23 79.08,64.23 L75.71,64.33 L75.31,62.61 L116.78,15.12 Z" fill="#E0E0E0"/>
  <path d="M68.18,64.36 C68.18,64.36 80.91,48.5 92.04,35.27 C103.17,22.04 108.57,14.83 110.13,14.36 C111.69,13.89 119.46,15.35 119.74,16.34 C120.14,17.72 119.62,19.11 115.57,23.31 C111.52,27.51 76.5,64.31 76.5,64.31 C76.5,64.31 74.69,64.37 72.92,64.38 C71.15,64.39 68.18,64.36 68.18,64.36 Z" fill="#C8C8C8"/>
  <path d="M110.57,16.88 C108.27,17.71 100.63,25.96 102.64,26.82 C104.26,27.52 109.22,22.1 111.86,20.6 C114.5,19.1 116.08,19.81 116.36,18.6 C116.65,17.38 112.93,16.02 110.57,16.88 Z" fill="#FFFFFF"/>
</svg>
